icons/solid/contact.svg

<svg width="24" height="24" viewBox="0 0 24 24" fill="none" xmlns="http://www.w3.org/2000/svg">
<path fill-rule="evenodd" clip-rule="evenodd" d="M5 4C3.34315 4 2 5.34315 2 7V17C2 18.6569 3.34315 20 5 20H19C20.6569 20 22 18.6569 22 17V7C22 5.34315 20.6569 4 19 4H5ZM12 11C12 11.6624 11.7853 12.2746 11.4218 12.7709C12.0415 13.2354 12.4946 13.8579 12.8656 14.4993C13.1421 14.9773 12.9788 15.5891 12.5007 15.8656C12.0227 16.1421 11.4109 15.9788 11.1344 15.5007C10.8208 14.9585 10.5242 14.5923 10.2049 14.3583C9.90784 14.1407 9.5405 14 9 14C8.4595 14 8.09216 14.1407 7.79514 14.3583C7.47583 14.5923 7.17924 14.9585 6.8656 15.5007C6.58906 15.9788 5.97733 16.1421 5.49927 15.8656C5.02121 15.5891 4.85785 14.9773 5.13439 14.4993C5.50543 13.8579 5.95852 13.2354 6.57818 12.7709C6.21465 12.2746 6 11.6624 6 11C6 9.34315 7.34314 8 9 8C10.6569 8 12 9.34315 12 11ZM15 8C14.4477 8 14 8.44772 14 9C14 9.55228 14.4477 10 15 10H18C18.5523 10 19 9.55228 19 9C19 8.44772 18.5523 8 18 8H15ZM15 11C14.4477 11 14 11.4477 14 12C14 12.5523 14.4477 13 15 13H18C18.5523 13 19 12.5523 19 12C19 11.4477 18.5523 11 18 11H15ZM15 14C14.4477 14 14 14.4477 14 15C14 15.5523 14.4477 16 15 16H16C16.5523 16 17 15.5523 17 15C17 14.4477 16.5523 14 16 14H15ZM9 12C9.55228 12 10 11.5523 10 11C10 10.4477 9.55228 10 9 10C8.44772 10 8 10.4477 8 11C8 11.5523 8.44772 12 9 12Z" fill="currentColor"/>
</svg>

<svg width="24" height="24" fill="none" xmlns="http://www.w3.org/2000/svg"><path fill-rule="evenodd" clip-rule="evenodd" d="M5 4a3 3 0 00-3 3v10a3 3 0 003 3h14a3 3 0 003-3V7a3 3 0 00-3-3H5zm7 7c0 .662-.215 1.275-.578 1.77.62.465 1.073 1.088 1.444 1.73a1 1 0 11-1.732 1c-.313-.541-.61-.908-.93-1.142C9.909 14.141 9.54 14 9 14c-.54 0-.908.14-1.205.358-.32.234-.616.6-.93 1.143a1 1 0 01-1.73-1.002c.37-.641.824-1.264 1.443-1.728A3 3 0 1112 11zm3-3a1 1 0 100 2h3a1 1 0 100-2h-3zm0 3a1 1 0 100 2h3a1 1 0 100-2h-3zm0 3a1 1 0 100 2h1a1 1 0 100-2h-1zm-6-2a1 1 0 100-2 1 1 0 000 2z" fill="currentColor"/></svg>
